packages/vibrant-icons/assets/icons/Infinity/Fill.svg

<svg width="24" height="24" viewBox="0 0 24 24" fill="none" xmlns="http://www.w3.org/2000/svg"><path d="M18.1649 17.3504C15.9149 17.3504 14.4299 15.8854 12.9899 14.4704L11.9999 13.4954L11.0099 14.4704C9.5699 15.8854 8.0799 17.3504 5.8349 17.3504C2.8399 17.3504 0.399902 14.9504 0.399902 12.0004C0.399902 9.05039 2.8399 6.65039 5.8349 6.65039C8.0899 6.65039 9.5849 8.12039 11.0249 9.54539L11.9999 10.5054L12.9749 9.54539C14.4199 8.12039 15.9099 6.65039 18.1649 6.65039C21.1599 6.65039 23.5999 9.05039 23.5999 12.0004C23.5999 14.9504 21.1599 17.3504 18.1649 17.3504ZM14.5299 12.9004C15.9449 14.2954 16.8799 15.1504 18.1649 15.1504C19.9499 15.1504 21.3999 13.7354 21.3999 12.0004C21.3999 10.2654 19.9499 8.85039 18.1649 8.85039C16.8749 8.85039 15.9399 9.71039 14.5149 11.1154L13.6149 12.0004L14.5299 12.9004ZM5.8349 8.85039C4.0499 8.85039 2.5999 10.2654 2.5999 12.0004C2.5999 13.7354 4.0499 15.1504 5.8349 15.1504C7.1149 15.1504 8.0499 14.2954 9.4699 12.9004L10.3849 12.0004L9.4849 11.1154C8.0649 9.71039 7.1249 8.85039 5.8349 8.85039Z" fill="#0C0C0C"/></svg>

<svg xmlns="http://www.w3.org/2000/svg" width="24" height="24" fill="none"><path fill="#0C0C0C" d="M18.165 17.35c-2.25 0-3.735-1.465-5.175-2.88l-.99-.975-.99.975c-1.44 1.415-2.93 2.88-5.175 2.88C2.84 17.35.4 14.95.4 12s2.44-5.35 5.435-5.35c2.255 0 3.75 1.47 5.19 2.895l.975.96.975-.96C14.42 8.12 15.91 6.65 18.165 6.65c2.995 0 5.435 2.4 5.435 5.35s-2.44 5.35-5.435 5.35M14.53 12.9c1.415 1.395 2.35 2.25 3.635 2.25 1.785 0 3.235-1.415 3.235-3.15s-1.45-3.15-3.235-3.15c-1.29 0-2.225.86-3.65 2.265l-.9.885zM5.835 8.85C4.05 8.85 2.6 10.265 2.6 12s1.45 3.15 3.235 3.15c1.28 0 2.215-.855 3.635-2.25l.915-.9-.9-.885C8.065 9.71 7.125 8.85 5.835 8.85"/></svg>
